icons/modern/pleading-face.svg

<svg width="32" height="32" viewBox="0 0 32 32" fill="none" xmlns="http://www.w3.org/2000/svg">
<g clip-path="url(#clip0_31_1614)">
<path d="M15.9989 29.9978C25.3333 29.9978 29.9978 23.7303 29.9978 15.9989C29.9978 8.26751 25.3333 2 15.9989 2C6.66443 2 2 8.26751 2 15.9989C2 23.7303 6.66443 29.9978 15.9989 29.9978Z" fill="url(#paint0_radial_31_1614)"/>
<path d="M15.9989 29.9978C25.3333 29.9978 29.9978 23.7303 29.9978 15.9989C29.9978 8.26751 25.3333 2 15.9989 2C6.66443 2 2 8.26751 2 15.9989C2 23.7303 6.66443 29.9978 15.9989 29.9978Z" fill="url(#paint1_radial_31_1614)"/>
<path d="M15.9989 29.9978C25.3333 29.9978 29.9978 23.7303 29.9978 15.9989C29.9978 8.26751 25.3333 2 15.9989 2C6.66443 2 2 8.26751 2 15.9989C2 23.7303 6.66443 29.9978 15.9989 29.9978Z" fill="url(#paint2_radial_31_1614)"/>
<path d="M15.9989 29.9978C25.3333 29.9978 29.9978 23.7303 29.9978 15.9989C29.9978 8.26751 25.3333 2 15.9989 2C6.66443 2 2 8.26751 2 15.9989C2 23.7303 6.66443 29.9978 15.9989 29.9978Z" fill="url(#paint3_radial_31_1614)" fill-opacity="0.6"/>
<path d="M15.9989 29.9978C25.3333 29.9978 29.9978 23.7303 29.9978 15.9989C29.9978 8.26751 25.3333 2 15.9989 2C6.66443 2 2 8.26751 2 15.9989C2 23.7303 6.66443 29.9978 15.9989 29.9978Z" fill="url(#paint4_radial_31_1614)"/>
<path d="M15.9989 29.9978C25.3333 29.9978 29.9978 23.7303 29.9978 15.9989C29.9978 8.26751 25.3333 2 15.9989 2C6.66443 2 2 8.26751 2 15.9989C2 23.7303 6.66443 29.9978 15.9989 29.9978Z" fill="url(#paint5_radial_31_1614)"/>
<path d="M15.9989 29.9978C25.3333 29.9978 29.9978 23.7303 29.9978 15.9989C29.9978 8.26751 25.3333 2 15.9989 2C6.66443 2 2 8.26751 2 15.9989C2 23.7303 6.66443 29.9978 15.9989 29.9978Z" fill="url(#paint6_radial_31_1614)"/>
<path d="M15.9989 29.9978C25.3333 29.9978 29.9978 23.7303 29.9978 15.9989C29.9978 8.26751 25.3333 2 15.9989 2C6.66443 2 2 8.26751 2 15.9989C2 23.7303 6.66443 29.9978 15.9989 29.9978Z" fill="url(#paint7_radial_31_1614)"/>
<path fill-rule="evenodd" clip-rule="evenodd" d="M15 16.5C15 18.9853 12.9853 21 10.5 21C8.01472 21 6 18.9853 6 16.5C6 14.0147 8.01472 12 10.5 12C12.9853 12 15 14.0147 15 16.5ZM25.96 16.48C25.96 18.9542 23.9542 20.96 21.48 20.96C19.0058 20.96 17 18.9542 17 16.48C17 14.0058 19.0058 12 21.48 12C23.9542 12 25.96 14.0058 25.96 16.48Z" fill="white"/>
<path d="M7 15.88C7 13.74 8.74 12 10.88 12C13.02 12 14.76 13.74 14.76 15.88C14.76 18.02 13.02 19.76 10.88 19.76C8.74 19.76 7 18.02 7 15.88Z" fill="url(#paint8_linear_31_1614)"/>
<path d="M17 15.88C17 13.74 18.74 12 20.88 12C23.02 12 24.76 13.74 24.76 15.88C24.76 18.02 23.02 19.76 20.88 19.76C18.74 19.76 17 18.02 17 15.88Z" fill="url(#paint9_linear_31_1614)"/>
<path d="M13.8436 14.0716C14.2117 14.8666 13.908 15.6999 13.1626 15.9369C12.4172 16.1739 11.5245 15.7228 11.1564 14.9278C10.7883 14.1328 11.092 13.2995 11.8374 13.0625C12.5828 12.8255 13.4755 13.2842 13.8436 14.0716Z" fill="url(#paint10_linear_31_1614)"/>
<path d="M23.8436 14.0716C24.2117 14.8666 23.908 15.6999 23.1626 15.9369C22.4172 16.1739 21.5245 15.7228 21.1564 14.9278C20.7883 14.1328 21.092 13.2995 21.8374 13.0625C22.5736 12.8255 23.4755 13.2842 23.8436 14.0716Z" fill="url(#paint11_linear_31_1614)"/>
<path d="M10.5 7.5C10.5 7.5 10 10.5 6.5 10.5" stroke="url(#paint12_linear_31_1614)" stroke-width="1.25" stroke-linecap="round" stroke-linejoin="round"/>
<path d="M10.5 7.5C10.5 7.5 10 10.5 6.5 10.5" stroke="url(#paint13_radial_31_1614)" stroke-width="1.25" stroke-linecap="round" stroke-linejoin="round"/>
<path d="M21.5 7.5C21.5 7.5 22 10.5 25.5 10.5" stroke="url(#paint14_radial_31_1614)" stroke-width="1.25" stroke-linecap="round" stroke-linejoin="round"/>
<path d="M14 25C14 25 14.5 24 16 24C17.5 24 18 25 18 25" stroke="url(#paint15_linear_31_1614)" stroke-width="2" stroke-linecap="round"/>
</g>
<defs>
<radialGradient id="paint0_radial_31_1614" cx="0" cy="0" r="1" gradientUnits="userSpaceOnUse" gradientTransform="translate(25.5 9) rotate(132.839) scale(37.5033)">
<stop stop-color="#FFF478"/>
<stop offset="0.474827" stop-color="#FFB02E"/>
<stop offset="1" stop-color="#F70A8D"/>
</radialGradient>
<radialGradient id="paint1_radial_31_1614" cx="0" cy="0" r="1" gradientUnits="userSpaceOnUse" gradientTransform="translate(25.5 9) rotate(131.878) scale(38.9487)">
<stop stop-color="#FFF478"/>
<stop offset="0.474827" stop-color="#FFB02E"/>
<stop offset="1" stop-color="#F70A8D"/>
</radialGradient>
<radialGradient id="paint2_radial_31_1614" cx="0" cy="0" r="1" gradientUnits="userSpaceOnUse" gradientTransform="translate(16 12.5) rotate(101.31) scale(17.8466 22.8581)">
<stop offset="0.787821" stop-color="#F59639" stop-opacity="0"/>
<stop offset="0.972509" stop-color="#FF7DCE"/>
</radialGradient>
<radialGradient id="paint3_radial_31_1614" cx="0" cy="0" r="1" gradientUnits="userSpaceOnUse" gradientTransform="translate(18 14) rotate(135) scale(41.0122)">
<stop offset="0.314853" stop-opacity="0"/>
<stop offset="1"/>
</radialGradient>
<radialGradient id="paint4_radial_31_1614" cx="0" cy="0" r="1" gradientUnits="userSpaceOnUse" gradientTransform="translate(16 17) rotate(77.692) scale(28.1469)">
<stop offset="0.507903" stop-color="#7D6133" stop-opacity="0"/>
<stop offset="1" stop-color="#715B32"/>
</radialGradient>
<radialGradient id="paint5_radial_31_1614" cx="0" cy="0" r="1" gradientUnits="userSpaceOnUse" gradientTransform="translate(16.5 16.5) rotate(55.7131) scale(13.3135 9.65032)">
<stop stop-color="#FFB849"/>
<stop offset="1" stop-color="#FFB847" stop-opacity="0"/>
</radialGradient>
<radialGradient id="paint6_radial_31_1614" cx="0" cy="0" r="1" gradientUnits="userSpaceOnUse" gradientTransform="translate(20.5 18) rotate(9.86581) scale(11.6726)">
<stop stop-color="#FFA64B"/>
<stop offset="0.900412" stop-color="#FFAE46" stop-opacity="0"/>
</radialGradient>
<radialGradient id="paint7_radial_31_1614" cx="0" cy="0" r="1" gradientUnits="userSpaceOnUse" gradientTransform="translate(17.5 15) rotate(43.9708) scale(59.0529)">
<stop offset="0.185425" stop-opacity="0"/>
<stop offset="1" stop-opacity="0.4"/>
</radialGradient>
<linearGradient id="paint8_linear_31_1614" x1="12.3723" y1="12" x2="10.88" y2="19.76" gradientUnits="userSpaceOnUse">
<stop stop-color="#553B3E"/>
<stop offset="1" stop-color="#3D2432"/>
</linearGradient>
<linearGradient id="paint9_linear_31_1614" x1="22.3723" y1="12" x2="20.88" y2="19.76" gradientUnits="userSpaceOnUse">
<stop stop-color="#553B3E"/>
<stop offset="1" stop-color="#3D2432"/>
</linearGradient>
<linearGradient id="paint10_linear_31_1614" x1="11.7832" y1="12.948" x2="12.6291" y2="15.5977" gradientUnits="userSpaceOnUse">
<stop offset="0.00558659" stop-color="white"/>
<stop offset="1" stop-color="white" stop-opacity="0"/>
</linearGradient>
<linearGradient id="paint11_linear_31_1614" x1="21.7782" y1="12.9482" x2="22.6241" y2="15.5978" gradientUnits="userSpaceOnUse">
<stop offset="0.00558659" stop-color="white"/>
<stop offset="1" stop-color="white" stop-opacity="0"/>
</linearGradient>
<linearGradient id="paint12_linear_31_1614" x1="9.5" y1="7" x2="9.5" y2="8.5" gradientUnits="userSpaceOnUse">
<stop offset="0.0299084" stop-color="#524049"/>
<stop offset="1" stop-color="#4A2C42"/>
</linearGradient>
<radialGradient id="paint13_radial_31_1614" cx="0" cy="0" r="1" gradientUnits="userSpaceOnUse" gradientTransform="translate(7 7) rotate(54.4623) scale(4.30116)">
<stop offset="0.541667" stop-color="#493032"/>
<stop offset="0.806723" stop-color="#5E445A"/>
<stop offset="0.955326" stop-color="#4A2C42"/>
</radialGradient>
<radialGradient id="paint14_radial_31_1614" cx="0" cy="0" r="1" gradientUnits="userSpaceOnUse" gradientTransform="translate(25 7) rotate(125.538) scale(4.30116)">
<stop stop-color="#C2B4B5"/>
<stop offset="0.887405" stop-color="#462B45"/>
<stop offset="1" stop-color="#4A2C42"/>
</radialGradient>
<linearGradient id="paint15_linear_31_1614" x1="16" y1="22" x2="16" y2="24" gradientUnits="userSpaceOnUse">
<stop stop-color="#4F3C43"/>
<stop offset="1" stop-color="#512756"/>
</linearGradient>
<clipPath id="clip0_31_1614">
<rect width="32" height="32" fill="white"/>
</clipPath>
</defs>
</svg>

<svg width="32" height="32" fill="none" xmlns="http://www.w3.org/2000/svg"><g clip-path="url(#a)"><path d="M15.999 29.998c9.334 0 13.999-6.268 13.999-14 0-7.73-4.665-13.998-14-13.998C6.665 2 2 8.268 2 15.999c0 7.731 4.664 13.999 13.999 13.999Z" fill="url(#b)"/><path d="M15.999 29.998c9.334 0 13.999-6.268 13.999-14 0-7.73-4.665-13.998-14-13.998C6.665 2 2 8.268 2 15.999c0 7.731 4.664 13.999 13.999 13.999Z" fill="url(#c)"/><path d="M15.999 29.998c9.334 0 13.999-6.268 13.999-14 0-7.73-4.665-13.998-14-13.998C6.665 2 2 8.268 2 15.999c0 7.731 4.664 13.999 13.999 13.999Z" fill="url(#d)"/><path d="M15.999 29.998c9.334 0 13.999-6.268 13.999-14 0-7.73-4.665-13.998-14-13.998C6.665 2 2 8.268 2 15.999c0 7.731 4.664 13.999 13.999 13.999Z" fill="url(#e)" fill-opacity=".6"/><path d="M15.999 29.998c9.334 0 13.999-6.268 13.999-14 0-7.73-4.665-13.998-14-13.998C6.665 2 2 8.268 2 15.999c0 7.731 4.664 13.999 13.999 13.999Z" fill="url(#f)"/><path d="M15.999 29.998c9.334 0 13.999-6.268 13.999-14 0-7.73-4.665-13.998-14-13.998C6.665 2 2 8.268 2 15.999c0 7.731 4.664 13.999 13.999 13.999Z" fill="url(#g)"/><path d="M15.999 29.998c9.334 0 13.999-6.268 13.999-14 0-7.73-4.665-13.998-14-13.998C6.665 2 2 8.268 2 15.999c0 7.731 4.664 13.999 13.999 13.999Z" fill="url(#h)"/><path d="M15.999 29.998c9.334 0 13.999-6.268 13.999-14 0-7.73-4.665-13.998-14-13.998C6.665 2 2 8.268 2 15.999c0 7.731 4.664 13.999 13.999 13.999Z" fill="url(#i)"/><path fill-rule="evenodd" clip-rule="evenodd" d="M15 16.5a4.5 4.5 0 1 1-9 0 4.5 4.5 0 0 1 9 0Zm10.96-.02a4.48 4.48 0 1 1-8.96 0 4.48 4.48 0 0 1 8.96 0Z" fill="#fff"/><path d="M7 15.88C7 13.74 8.74 12 10.88 12c2.14 0 3.88 1.74 3.88 3.88 0 2.14-1.74 3.88-3.88 3.88-2.14 0-3.88-1.74-3.88-3.88Z" fill="url(#j)"/><path d="M17 15.88c0-2.14 1.74-3.88 3.88-3.88 2.14 0 3.88 1.74 3.88 3.88 0 2.14-1.74 3.88-3.88 3.88-2.14 0-3.88-1.74-3.88-3.88Z" fill="url(#k)"/><path d="M13.844 14.072c.368.795.064 1.628-.681 1.865-.746.237-1.639-.214-2.007-1.01-.368-.794-.064-1.627.681-1.864.746-.238 1.639.221 2.007 1.009Z" fill="url(#l)"/><path d="M23.844 14.072c.368.795.064 1.628-.681 1.865-.746.237-1.639-.214-2.007-1.01-.368-.794-.064-1.627.681-1.864.737-.238 1.639.221 2.007 1.009Z" fill="url(#m)"/><path d="M10.5 7.5s-.5 3-4 3" stroke="url(#n)" stroke-width="1.25" stroke-linecap="round" stroke-linejoin="round"/><path d="M10.5 7.5s-.5 3-4 3" stroke="url(#o)" stroke-width="1.25" stroke-linecap="round" stroke-linejoin="round"/><path d="M21.5 7.5s.5 3 4 3" stroke="url(#p)" stroke-width="1.25" stroke-linecap="round" stroke-linejoin="round"/><path d="M14 25s.5-1 2-1 2 1 2 1" stroke="url(#q)" stroke-width="2" stroke-linecap="round"/></g><defs><radialGradient id="b" cx="0" cy="0" r="1" gradientUnits="userSpaceOnUse" gradientTransform="rotate(132.839 10.786 10.065) scale(37.5033)"><stop stop-color="#FFF478"/><stop offset=".475" stop-color="#FFB02E"/><stop offset="1" stop-color="#F70A8D"/></radialGradient><radialGradient id="c" cx="0" cy="0" r="1" gradientUnits="userSpaceOnUse" gradientTransform="rotate(131.878 10.74 10.193) scale(38.9487)"><stop stop-color="#FFF478"/><stop offset=".475" stop-color="#FFB02E"/><stop offset="1" stop-color="#F70A8D"/></radialGradient><radialGradient id="d" cx="0" cy="0" r="1" gradientUnits="userSpaceOnUse" gradientTransform="rotate(101.31 2.876 12.808) scale(17.8466 22.8581)"><stop offset=".788" stop-color="#F59639" stop-opacity="0"/><stop offset=".973" stop-color="#FF7DCE"/></radialGradient><radialGradient id="e" cx="0" cy="0" r="1" gradientUnits="userSpaceOnUse" gradientTransform="matrix(-29 29 -29 -29 18 14)"><stop offset=".315" stop-opacity="0"/><stop offset="1"/></radialGradient><radialGradient id="f" cx="0" cy="0" r="1" gradientUnits="userSpaceOnUse" gradientTransform="rotate(77.692 -2.555 18.434) scale(28.1469)"><stop offset=".508" stop-color="#7D6133" stop-opacity="0"/><stop offset="1" stop-color="#715B32"/></radialGradient><radialGradient id="g" cx="0" cy="0" r="1" gradientUnits="userSpaceOnUse" gradientTransform="rotate(55.713 -7.36 23.86) scale(13.3135 9.65032)"><stop stop-color="#FFB849"/><stop offset="1" stop-color="#FFB847" stop-opacity="0"/></radialGradient><radialGradient id="h" cx="0" cy="0" r="1" gradientUnits="userSpaceOnUse" gradientTransform="matrix(11.49998 2 -2 11.49998 20.5 18)"><stop stop-color="#FFA64B"/><stop offset=".9" stop-color="#FFAE46" stop-opacity="0"/></radialGradient><radialGradient id="i" cx="0" cy="0" r="1" gradientUnits="userSpaceOnUse" gradientTransform="rotate(43.971 -9.827 29.173) scale(59.0529)"><stop offset=".185" stop-opacity="0"/><stop offset="1" stop-opacity=".4"/></radialGradient><radialGradient id="o" cx="0" cy="0" r="1" gradientUnits="userSpaceOnUse" gradientTransform="matrix(2.5 3.5 -3.5 2.5 7 7)"><stop offset=".542" stop-color="#493032"/><stop offset=".807" stop-color="#5E445A"/><stop offset=".955" stop-color="#4A2C42"/></radialGradient><radialGradient id="p" cx="0" cy="0" r="1" gradientUnits="userSpaceOnUse" gradientTransform="rotate(125.538 10.699 9.933) scale(4.30116)"><stop stop-color="#C2B4B5"/><stop offset=".887" stop-color="#462B45"/><stop offset="1" stop-color="#4A2C42"/></radialGradient><linearGradient id="j" x1="12.372" y1="12" x2="10.88" y2="19.76" gradientUnits="userSpaceOnUse"><stop stop-color="#553B3E"/><stop offset="1" stop-color="#3D2432"/></linearGradient><linearGradient id="k" x1="22.372" y1="12" x2="20.88" y2="19.76" gradientUnits="userSpaceOnUse"><stop stop-color="#553B3E"/><stop offset="1" stop-color="#3D2432"/></linearGradient><linearGradient id="l" x1="11.783" y1="12.948" x2="12.629" y2="15.598" gradientUnits="userSpaceOnUse"><stop offset=".006" stop-color="#fff"/><stop offset="1" stop-color="#fff" stop-opacity="0"/></linearGradient><linearGradient id="m" x1="21.778" y1="12.948" x2="22.624" y2="15.598" gradientUnits="userSpaceOnUse"><stop offset=".006" stop-color="#fff"/><stop offset="1" stop-color="#fff" stop-opacity="0"/></linearGradient><linearGradient id="n" x1="9.5" y1="7" x2="9.5" y2="8.5" gradientUnits="userSpaceOnUse"><stop offset=".03" stop-color="#524049"/><stop offset="1" stop-color="#4A2C42"/></linearGradient><linearGradient id="q" x1="16" y1="22" x2="16" y2="24" gradientUnits="userSpaceOnUse"><stop stop-color="#4F3C43"/><stop offset="1" stop-color="#512756"/></linearGradient><clipPath id="a"><path fill="#fff" d="M0 0h32v32H0z"/></clipPath></defs></svg>
